X: 1
T: Back Of The Haggard, The
M: 4/4
L: 1/8
R: hornpipe
K: Dmaj
(3ABc|:dcdf ec (3ABc|dBGB AFDF|EGFA GEgf| (3efe (3dcB A2 (3ABc|
dcdf edeg|fefg afdA|(3Bcd cB (3ABA (3GFE| (3DFA (3dAF D2 (3ABc:|
|:(3EAA Ac ecAc|edcB Adfa|gfeg fedf|(3efe (3dcB (3ABA (3GFE|
DFAF EGBG|FAdf afdA|BdcB (3ABA (3GFE|(3DFA (3dAF D2z2:|
